X: 114102
T: CLYDESDALE LASSES
Q: "Reel."
R:  Reel.
%R: reel
N: This is version 2, for ABC software that understands voice overlays.
B: James Kerr "Merry Melodies" v.1 p.14 s.1 #2
Z: 2017 John Chambers <jc:trillian.mit.edu>
M: C
L: 1/8
K: F
uc !segno!|:\
AFcF dFcF | AFcF ABcB |\
AFcF dFcA | BAGA x3"^2nd"e & x4 BcdB :|\
fgag f2(cf) | gfga baga |
fgag f2(Ac) | BAGA Bcde |\
fgag f2(cf) | gfga baga |\
fgaf gefc | BAGA BcdB |]

%%sep 1 1 500
%%sep 1 1 500

